styles/1/Numix/48/actions/grey-folder-new.svg

<?xml version="1.0" encoding="UTF-8" standalone="no"?>
<!-- Created with Inkscape (http://www.inkscape.org/) -->

<svg
   xmlns:dc="http://purl.org/dc/elements/1.1/"
   xmlns:cc="http://creativecommons.org/ns#"
   xmlns:rdf="http://www.w3.org/1999/02/22-rdf-syntax-ns#"
   xmlns:svg="http://www.w3.org/2000/svg"
   xmlns="http://www.w3.org/2000/svg"
   xmlns:sodipodi="http://sodipodi.sourceforge.net/DTD/sodipodi-0.dtd"
   xmlns:inkscape="http://www.inkscape.org/namespaces/inkscape"
   id="svg3396"
   height="48"
   width="48"
   version="1.0"
   inkscape:version="0.91 r"
   sodipodi:docname="grey-folder-new.svg">
  <metadata
     id="metadata64">
    <rdf:RDF>
      <cc:Work
         rdf:about="">
        <dc:format>image/svg+xml</dc:format>
        <dc:type
           rdf:resource="http://purl.org/dc/dcmitype/StillImage" />
        <dc:title />
      </cc:Work>
    </rdf:RDF>
  </metadata>
  <sodipodi:namedview
     pagecolor="#ffffff"
     bordercolor="#666666"
     borderopacity="1"
     objecttolerance="10"
     gridtolerance="10"
     guidetolerance="10"
     inkscape:pageopacity="0"
     inkscape:pageshadow="2"
     inkscape:window-width="1280"
     inkscape:window-height="998"
     id="namedview62"
     showgrid="true"
     inkscape:zoom="16.622533"
     inkscape:cx="38.06744"
     inkscape:cy="13.56606"
     inkscape:window-x="0"
     inkscape:window-y="0"
     inkscape:window-maximized="1"
     inkscape:current-layer="svg3396">
    <inkscape:grid
       type="xygrid"
       id="grid3906" />
  </sodipodi:namedview>
  <defs
     id="defs3398" />
  <path
     style="font-size:medium;font-style:normal;font-variant:normal;font-weight:normal;font-stretch:normal;text-indent:0;text-align:start;text-decoration:none;line-height:normal;letter-spacing:normal;word-spacing:normal;text-transform:none;direction:ltr;block-progression:tb;writing-mode:lr-tb;text-anchor:start;baseline-shift:baseline;color:#000000;fill:#bdbdbd;fill-opacity:1;stroke:none;stroke-width:3.00000024;marker:none;visibility:visible;display:inline;overflow:visible;enable-background:accumulate;font-family:Sans;-inkscape-font-specification:Sans"
     d="M 5.1875,8 C 4.5111319,8.1439566 3.9849192,8.8086463 4,9.5 l 0,28 c 7.86e-5,0.785377 0.7146233,1.499921 1.5,1.5 l 19.5,0 0,-8 7,0 0,-7 8,0 0,7 4,0 0,-18.46875 c -7.9e-5,-0.785377 -0.714623,-1.499921 -1.5,-1.5 l -14.5,0 L 28,9.5 C 27.999921,8.7146233 27.285377,8.0000786 26.5,8 L 5.5,8 C 5.3962117,7.9891307 5.2912883,7.9891307 5.1875,8 z"
     id="path3912"
     inkscape:connector-curvature="0"
     sodipodi:nodetypes="cccccccccccccccccc" />
  <path
     style="fill:#859900;fill-opacity:1;fill-rule:evenodd;stroke:none"
     d="M 34 26 L 34 33 L 27 33 L 27 37 L 34 37 L 34 44 L 38 44 L 38 37 L 45 37 L 45 33 L 38 33 L 38 26 L 34 26 z "
     id="rect3034" />
</svg>

<!-- Created with Inkscape (http://www.inkscape.org/) -->
<svg xmlns="http://www.w3.org/2000/svg" viewBox="0 0 48 48">
 <path d="m 5.188 8 c -0.676 0.144 -1.203 0.809 -1.188 1.5 l 0 28 c 0 0.785 0.715 1.5 1.5 1.5 l 19.5 0 0 -8 7 0 0 -7 8 0 0 7 4 0 0 -18.469 c 0 -0.785 -0.715 -1.5 -1.5 -1.5 l -14.5 0 l 0 -1.531 c 0 -0.785 -0.715 -1.5 -1.5 -1.5 l -21 0 c -0.104 -0.011 -0.209 -0.011 -0.313 0 z" style="visibility:visible;fill:#bdbdbd;fill-opacity:1;stroke:none;display:inline;color:#000"/>
 <path d="m 34 26 l 0 7 l -7 0 l 0 4 l 7 0 l 0 7 l 4 0 l 0 -7 l 7 0 l 0 -4 l -7 0 l 0 -7 l -4 0 z" style="fill:#859900;fill-opacity:1;stroke:none;fill-rule:evenodd"/>
</svg>
